**kern	**kern
*staff1	*staff1
*head1[head1a]	*head1[head1a]
*solo1[solo1a]	*solo1[solo1a]
*solo2[solo2a]	*solo2[solo2a]
*solo3[solo3a]	*solo3[solo3a]
=1-	=1-
*clefG2	*clefG2
*k[]	*k[]
*F:	*F:
*M4/4	*M4/4
1r	.
=2	=2
1r	.
=3	=3
1r	.
=4	=4
1r	.
=5	=5
1r	.
=6	=6
1r	.
=7	=7
1r	.
=8	=8
2r	.
4r	.
8r	.
*>head1a	*head1a
{8c/	.
=9	=9
8f/L	1F:dom
8f/	.
8g/	.
8c/J	.
4f/	.
8r	.
8c/	.
=10||	=10||
8f/L	1F:dom
8f/	.
8g/	.
8c/J	.
4f/	.
8r	.
8c/	.
=11	=11
8f/L	1F:dom
8f/	.
8g/	.
8c/J	.
8f/L	.
8f/	.
8g/	.
8c/J	.
=12	=12
8f/L	1F:dom
8f/	.
8g/	.
8c/J	.
4f/	.
8r	.
8c/	.
=13	=13
8f/L	1B-:dom
8f/	.
8g/	.
8c/J	.
8f/L	.
[8B-/J	.
4B-/]	.
=14	=14
8f/L	2B-:dom
8f/	.
8g/	.
8c/J	.
8f/L	2B:o7
[8B/J	.
4B/]	.
=15	=15
8f/L	1F:dom
8f/	.
8g/	.
8c/J	.
8f/L	.
8f/	.
8g/	.
8c/J	.
=16	=16
8f/L	1F:dom
8f/	.
8g/	.
8c/J	.
4f/	.
8r	.
[8a-/	.
=17	=17
24a/LL	1G:min
24b-	.
24a-/JJ]	.
8f/L	.
8d/	.
8B/J	.
4d/	.
4r	.
=18	=18
8r	1C:dom
[8g/	.
4g/]	.
8f/L	.
8g/	.
8f/	.
8e-/J	.
=19	=19
8r	1F:dom
8c/	.
4r	.
4c/}	.
4r	.
=20	=20
1r	1C:dom
=21	=21
4r	1F:dom
8r	.
*>solo1a	*>solo1a
{8f/	.
8a\L	.
8cc\	.
8b-\	.
16cc\L	.
16b-\JJ	.
=22||	=22||
8a/L	1F:dom
8f/	.
8d/	.
8c/J	.
4f/	.
8d/L	.
8c/J	.
=23	=23
8f/L	1F:dom
8a/J	.
2e-/}	.
4r	.
=24	=24
1r	1F:dom
=25	=25
2r	1B-:dom
{8ff\L	.
16dd\L	.
16cc\J	.
8a-\	.
[8f\J	.
=26	=26
4.f/]	1B-:dom
16d/LL	.
16f/JJ	.
8g/L	.
8a-/J}	.
4r	.
=27	=27
4r	1F:dom
8r	.
{8f/	.
8ff\L	.
16dd\L	.
16cc\J	.
8a-\	.
[8f\J	.
=28	=28
4f/_	1F:dom
16f/LL]	.
16e/JJ	.
24f/LL	.
24a/	.
24cc/JJ	.
8ee\L	.
8dd\J}	.
4r	.
=29	=29
2r	1G:min
4r	.
8r	.
{16a/LL	.
16b-/JJ	.
=30	=30
16dd-\LL1C:dom	.
16ee-\J	.
[8cc\	.
8cc\]	.
16b-\L	.
16cc\JJ	.
4.a/	.
8f/	.
=31	=31
24g/LL	1F:dom
24a-/	.
24g/JJ	.
8f/L	.
8d/	.
[8f/J	.
4f/]}	.
4r	.
=32	=32
2r	2G:min
4r	2C:dom
8r	.
*>solo2a	*solo2a
{16c/LL	.
16f/JJ	.
=33	=33
8a\L	1F:dom
8cc\	.
8b-\	.
16cc\L	.
16b-\JJ	.
8a/L	.
8f/	.
8e-/	.
8g/J	.
=34||	=34||
8f/L	1B-:dom
8d/J	.
16B-/LL	.
16G/J	.
[8A-/J	.
4A-/]}	.
8r	.
{24e/LL	.
24d/	.
24c/JJ	.
=35	=35
8A/L	1F:dom
8B-/	.
8c/	.
8B-/J	.
20A/LL	.
20B-/	.
20c/	.
20e-/	.
20g/JJ	.
8dd\L	.
[8cc\J	.
=36	=36
4cc\]}	1F:dom
4r	.
2r	.
=37	=37
4r	1B-:dom
{16f/LL	.
16g/	.
16cc/	.
[16aa-/JJ	.
8aa-\L]	.
[8dd\J	.
4dd\]}	.
=38	=38
4r	1B-:dom
8r	.
{16gg\LL	.
16gg-\JJ	.
16ff\LL	.
16ee\	.
16dd\	.
16dd-\JJ	.
16cc/LL	.
16a/JJ	.
24b-\LL	.
24cc\	.
24b-\JJ	.
=39	=39
16a/LL	1F:dom
16f/	.
16d/	.
16c/JJ	.
16g/LL	.
16e/JJ	.
24f/LL	.
24a/	.
24cc/JJ	.
24ee\LL	.
24ff\	.
24ff#\JJ	.
16gg\LL	.
16ee\JJ	.
16ffn\LL	.
16cc\JJ}	.
8r	.
=40	=40
4r	1D:dom
8r	.
{16a/LL	.
16g/JJ	.
16g-/LL	.
16e-/	.
16c/	.
16c#/J	.
8.d/	.
16A/Jk	.
=41	=41
16c/LL	1G:min
16B-/	.
16A/	.
16B-/JJ	.
16d/LL	.
16f/	.
16g/	.
16a/JJ	.
16cc/LL	.
16a/	.
16b-/	.
16g/JJ}	.
4r	.
=42	=42
4r	1C:dom
8r	.
*>solo3a	*>solo3a
{8f/	.
8e/	.
4cc\	.
8a/	.
=43	=43
4f/}	1F:dom
4r	.
4r	.
{[4c/	.
=44	=44
2.c/_	2G:min
8c/L]	.
8c/J	2C:dom
=45	=45
8d/L	1F:dom
[8c/J	.
4c/]}	.
4r	.
8r	.
{8f/	.
=46||	=46||
24a-/LL	1B-:dom
24b-/	.
24a-/JJ	.
8f/L	.
8d/	.
[8B-/J	.
8B-/L]	.
[8g/J	.
24g/LL]	.
24a-/	.
24g/JJ	.
8f/	.
=47	=47
8a/L	1F:dom
8cc/J}	.
4r	.
2r	.
=48	=48
4r	2C:min
{16b-/LL	.
16b-/	.
16a/	.
16g/JJ	.
16f/LL	2F:dom
16e/	.
16e-/	.
16g/JJ	.
16d/LL	.
16c/	.
16f/	.
16e-/JJ	.
=49	=49
16d/LL	1B-:dom
16F/	.
16G/	.
16A/JJ	.
16c/LL	.
16B-/	.
16A/	.
16B-/JJ	.
16d/LL	.
16f/	.
16g/	.
16a/JJ	.
16cc\LL	.
16b\	.
16b-\	.
[16a-\JJ	.
=50	=50
8a-/L]	1B-:dom
8f/J}	.
4r	.
2r	.
=51	=51
4r	1F:dom
16r	.
{16g#/	.
24a\LL	.
24cc\	.
24ee\JJ	.
16gg\LL	.
16ff\	.
16ee\	.
16dd\JJ	.
16cc/LL	.
16b-/	.
16a/	.
16g#/JJ	.
=52	=52
16f/LL	1F:dom
16e/	.
16d/	.
16d-/JJ	.
16c/LL	.
16B-/JJ	.
24A/LL	.
24c/	.
24e/JJ	.
16g/LL	.
16cc/	.
16g/	.
16f/JJ	.
16g-/LK	.
8.b/J	.
=53	=53
4b-\}	1G:min
4r	.
8r	.
{8a/	.
24g/LL	.
24a/	.
24g/JJ	.
8f/	.
=54	=54
8e/L	1C:dom
8G/J	.
16B-/LL	.
16d-/J	.
[8c/J	.
4c/]	.
8r	.
8B-/	.
=55	=55
8A/L	1F:dom
[8c/J	.
4c/]	.
8f/L	.
8c/	.
8g/	.
[8a/J	.
=56	=56
24a/LL]	2G:min
24b-/	.
24a/JJ	.
8f/L	.
8d/	.
[8d-/J	.
4d-/]	2C:dom
8r	.
16cc\LL	.
16b-\JJ	.
=57	=57
8a/L	1F:dom
8c/J}	.
4r	.
2r	.
==	==
*-	*-
